src/telerik-icons/solid/select-all.svg

<?xml version="1.0" encoding="utf-8"?>
<!-- Generator: Adobe Illustrator 24.2.0, SVG Export Plug-In . SVG Version: 6.00 Build 0)  -->
<svg xmlns="http://www.w3.org/2000/svg" width="512" height="512" viewBox="0 0 512 512">
<path d="M448,448h32v32h-32V448z M448,0h32v32h-32V0z M0,448h32v32H0V448z M0,0h32v32H0V0z M448,384h32v32h-32V384z M448,320h32v32
	h-32V320z M448,256h32v32h-32V256z M448,192h32v32h-32V192z M448,128h32v32h-32V128z M448,64h32v32h-32V64z M0,384h32v32H0V384z
	 M0,320h32v32H0V320z M0,256h32v32H0V256z M0,192h32v32H0V192z M0,128h32v32H0V128z M0,64h32v32H0V64z M128,448h32v32h-32V448z
	 M64,448h32v32H64V448z M192,448h32v32h-32V448z M256,448h32v32h-32V448z M320,448h32v32h-32V448z M384,448h32v32h-32V448z M64,0h32
	v32H64V0z M128,0h32v32h-32V0z M192,0h32v32h-32V0z M256,0h32v32h-32V0z M320,0h32v32h-32V0z M384,0h32v32h-32V0z M288,64l53.4,53.4
	L240,218.9L138.6,117.4L192,64H64v74.6V192l53.5-53.5L218.9,240L117.5,341.5L64,288v128h74.6H192l-53.4-53.4L240,261.1l101.4,101.5
	L288,416h128V288l-53.5,53.5L261.1,240l101.4-101.5L416,192v-53.4V64H288z" />
</svg>

<?xml version="1.0" encoding="utf-8"?>
<svg xmlns="http://www.w3.org/2000/svg" width="512" height="512" viewBox="0 0 512 512">
  <path d="M448 448h32v32h-32v-32zm0-448h32v32h-32V0zM0 448h32v32H0v-32zM0 0h32v32H0V0zm448 384h32v32h-32v-32zm0-64h32v32h-32v-32zm0-64h32v32h-32v-32zm0-64h32v32h-32v-32zm0-64h32v32h-32v-32zm0-64h32v32h-32V64zM0 384h32v32H0v-32zm0-64h32v32H0v-32zm0-64h32v32H0v-32zm0-64h32v32H0v-32zm0-64h32v32H0v-32zm0-64h32v32H0V64zm128 384h32v32h-32v-32zm-64 0h32v32H64v-32zm128 0h32v32h-32v-32zm64 0h32v32h-32v-32zm64 0h32v32h-32v-32zm64 0h32v32h-32v-32zM64 0h32v32H64V0zm64 0h32v32h-32V0zm64 0h32v32h-32V0zm64 0h32v32h-32V0zm64 0h32v32h-32V0zm64 0h32v32h-32V0zm-96 64 53.4 53.4L240 218.9 138.6 117.4 192 64H64v128l53.5-53.5L218.9 240 117.5 341.5 64 288v128h128l-53.4-53.4L240 261.1l101.4 101.5L288 416h128V288l-53.5 53.5L261.1 240l101.4-101.5L416 192V64H288z"/>
</svg>
